X:1
T:Title
%%score { ( 1 3 ) | ( 2 4 ) }
L:1/8
Q:1/4=92
M:4/4
K:Eb
V:1 treble nm="Grand Piano"
V:3 treble 
V:2 bass 
V:4 bass 
V:1
 G2 _G=G BAG[DF] | z4 G4 | G2 _G=G BAG[=A,DF] | z4 E4 | [B,FA]2 [B,FB][B,FA] GABG | %5
w: Herbert~G.~Tovey * * * * * *|||||
 F[FB][Fd][Ec] B-[AB-][GB-][FB] |[M:17/16] B-<BAG[CF][CF][Ec]3/2[Ec] | %7
w: ||
[M:7/8] [EB][EG][DG] [DF] E3 |[M:1/4] GA |[M:4/4] B6 z2 | c2 B2 A2 FG | A6 z2 | %12
w: |||||
[M:3/4] [FB]2 [FA]2 G2 |[M:1/4] GA |[M:4/4] B6 z2 |[M:9/8] c2 d- d [Ge]2- [Ge]EE | %16
w: ||||
[M:4/4] E2 [EG]2 [DF]3 E | E6 z2 |] %18
w: ||
V:2
 [E,B,E]2 [E,=A,E][E,B,E] [G,B,E][F,B,D][E,B,E][B,,A,] | z4 .B,2 z2 | %2
 [E,B,E]2 [E,=A,E][E,B,E] [G,B,E][F,B,D][E,B,E]=B,, | z4 E,4 | %4
 D,2 D,D, [E,B,E][F,B,D][G,B,E][E,B,E] | [F,B,D][D,B,][B,,B,][F,=A,] z C [A,B,]2 | %6
[M:17/16] [G,B,E]-<[G,B,E][F,B,D][E,B,E][A,,A,][A,,A,][=A,,_G,]3/2[A,,G,] | %7
[M:7/8] [B,,G,][B,,B,][B,,B,] [B,,A,] [E,G,]3 |[M:1/4] z2 |[M:4/4] z2 [E,G,]2 [F,A,]2 [G,B,E]2 | %10
 [A,E]2 [G,B,E]2 [F,B,D]2 z2 | z2 [F,B,]2 [D,B,]2 [B,,B,]2 |[M:3/4] [D,B,]2 [D,B,]2 [E,B,E]2 | %13
[M:1/4] z2 |[M:4/4] z2 [E,G,]2 [F,A,]2[K:treble] [G,B,E]2 | %15
[M:9/8] [A,E]2 [G,=B,F]- [G,B,F][K:bass] [C,C]2- [C,C][=B,,_G,=A,][B,,G,A,] | %16
[M:4/4] [B,,G,B,]2 [B,,B,]2 [B,,A,]3 [E,G,] | G,2 A,2 G,2 z2 |] %18
V:3
 x8 | EE[DF][DF] z C B,2 | x8 | [G,CE][G,CE][A,DF][A,DF] G,C B,2 | x8 | z4 .[B,D]2 z2 | %6
[M:17/16] x17/2 |[M:7/8] x7 |[M:1/4] x2 |[M:4/4] z2 E2 D2 B2 | x8 | z2 D2 F2 [DA]2 |[M:3/4] x6 | %13
[M:1/4] x2 |[M:4/4] z2 E2 D2 B2 |[M:9/8] x9 |[M:4/4] x8 | z2 C2 B,2 z2 |] %18
V:4
 x8 | [E,G,][E,G,][B,,B,][B,,B,] [E,E]4 | x8 | C,C,B,,B,, z A, G,2 | x8 | z4 B,,2 z2 | %6
[M:17/16] x17/2 |[M:7/8] x7 |[M:1/4] x2 |[M:4/4] x8 | x8 | x8 |[M:3/4] x6 |[M:1/4] x2 | %14
[M:4/4] x6[K:treble] x2 |[M:9/8] x4[K:bass] x5 |[M:4/4] x8 | E,6 z2 |] %18

